src/content/create-awesome-blog-with-gridsome/images/logo-normal-dark.svg

<svg fill="none" height="245" viewBox="0 0 1289 245" width="1289" xmlns="http://www.w3.org/2000/svg" xmlns:xlink="http://www.w3.org/1999/xlink"><linearGradient id="a" gradientUnits="userSpaceOnUse" x1="122.523" x2="122.523" y1="100.167" y2="244.752"><stop offset="0" stop-color="#00583e"/><stop offset="1" stop-color="#00835c"/></linearGradient><clipPath id="b"><path d="m308 19h981v183h-981z"/></clipPath><path d="m221.494 101.381c11.78-.566 22.207 8.572 23.224 20.362 4.406 57.037-47.793 120.931-121.352 122.974-61.9889 1.53-123.2976406-48.098-123.2976406-123.137 0-11.826 9.7722306-21.413 21.5654406-21.413 11.7932 0 21.3535 9.587 21.3535 21.413 0 49.359 39.6877 81.303 79.3287 80.325 48.799-1.356 80.523-43.61 78.873-78.11-.566-11.812 8.526-21.847 20.305-22.414z" fill="url(#a)"/><g fill="#00a672"><path d="m168.15 123.24c0-12.107 9.876-21.922 22.058-21.922h32.146c12.183 0 22.364 9.815 22.364 21.922 0 12.108-10.181 21.923-22.364 21.923h-32.146c-12.182 0-22.058-9.815-22.058-21.923z"/><path d="m100.7 123.272c0-12.125 9.813-21.954 21.904-21.954 12.092 0 21.905 9.829 21.905 21.954s-9.813 21.955-21.905 21.955c-12.091 0-21.904-9.83-21.904-21.955z"/><path clip-rule="evenodd" d="m143.902 20.6961c.49 11.8158-8.666 21.7921-20.449 22.2828-50.8655 2.1183-81.9184 42.0968-80.4069 80.0571.4705 11.816-8.5094 21.778-20.2933 22.25-11.7838.472-22.146414-9.065-22.616927-20.881-2.463143-61.8602 49.044627-123.01379 121.545127-124.214774 11.783-.490703 21.732 8.690084 22.221 20.505874z" fill-rule="evenodd"/></g><g clip-path="url(#b)" fill="#fff"><path d="m408.102 134.495h41.203c-2.086 7.726-5.376 14.729-9.869 21.007-4.333 6.116-10.031 11.026-17.092 14.729-7.061 3.702-15.647 5.553-25.757 5.553-11.074 0-21.104-2.575-30.091-7.727-8.826-5.151-15.808-12.314-20.943-21.489-5.135-9.337-7.703-20.122-7.703-32.356 0-12.395 2.568-23.0997 7.703-32.1142 5.296-9.1755 12.357-16.2583 21.184-21.2485 8.987-4.9902 18.937-7.4852 29.85-7.4852 11.715 0 21.665 2.4146 29.85 7.2438 8.345 4.8291 14.844 11.2681 19.498 19.3167l23.11-15.6949c-7.382-11.751-17.252-20.9265-29.609-27.5263-12.197-6.5999-26.48-9.8999-42.849-9.8999-12.678 0-24.474 2.1731-35.387 6.5194-10.752 4.1853-20.14 10.1413-28.165 17.868-7.863 7.7267-14.042 16.9827-18.535 27.7679-4.333 10.6242-6.5 22.3752-6.5 35.2532s2.167 24.709 6.5 35.494c4.333 10.786 10.431 20.122 18.295 28.01 8.024 7.888 17.412 14.004 28.164 18.351 10.753 4.185 22.468 6.278 35.146 6.278 13.481 0 25.437-2.415 35.868-7.244 10.432-4.99 19.178-11.751 26.239-20.283 7.061-8.531 12.357-18.27 15.888-29.216 3.531-11.107 5.135-22.859 4.814-35.253h-67.375z"/><path d="m557.159 115.661 12.759-22.2146c-2.568-2.8975-5.617-4.9902-9.148-6.278-3.53-1.2878-7.302-1.9317-11.314-1.9317-4.654 0-9.228 1.4488-13.721 4.3463-4.494 2.7366-8.345 6.5999-11.555 11.59v-13.5216h-25.757v111.0716h25.757v-62.538c0-8.049 1.444-14.488 4.333-19.317s7.543-7.244 13.962-7.244c3.21 0 5.858.564 7.944 1.69 2.086.966 4.333 2.415 6.74 4.347z"/><path d="m582.945 87.6514v111.0716h25.517v-111.0716zm-3.611-40.7409c0 4.5073 1.605 8.2902 4.815 11.3487 3.209 3.0584 7.061 4.5877 11.555 4.5877 4.654 0 8.585-1.5293 11.795-4.5877 3.21-3.0585 4.815-6.8414 4.815-11.3487 0-4.5072-1.605-8.2901-4.815-11.3486s-7.141-4.5877-11.795-4.5877c-4.494 0-8.346 1.5292-11.555 4.5877-3.21 3.0585-4.815 6.8414-4.815 11.3486z"/><path d="m652.116 143.187c0-11.107 3.29-19.719 9.87-25.836 6.58-6.278 14.363-9.417 23.35-9.417 4.975 0 9.87 1.368 14.685 4.105 4.814 2.736 8.826 6.761 12.036 12.073 3.209 5.151 4.814 11.509 4.814 19.075s-1.605 14.005-4.814 19.317c-3.21 5.151-7.222 9.095-12.036 11.831-4.815 2.737-9.71 4.105-14.685 4.105-8.987 0-16.77-3.058-23.35-9.175-6.58-6.278-9.87-14.971-9.87-26.078zm-26.961 0c0 12.234 2.488 22.697 7.463 31.39 4.975 8.531 11.554 15.131 19.739 19.8 8.185 4.507 17.092 6.76 26.721 6.76 8.024 0 15.245-1.77 21.665-5.312 6.58-3.702 11.956-8.853 16.128-15.453v18.351h26.239v-180.4122h-26.239v87.6912c-4.172-6.5996-9.548-11.6703-16.128-15.2117-6.42-3.7024-13.641-5.5536-21.665-5.5536-9.629 0-18.536 2.3342-26.721 7.0024-8.185 4.5072-14.764 11.1069-19.739 19.7999-4.975 8.531-7.463 18.914-7.463 31.148z"/><path d="m772.658 158.641-15.165 14.729c5.135 8.209 11.956 15.051 20.461 20.524 8.666 5.473 18.376 8.209 29.128 8.209 11.715 0 21.264-2.817 28.646-8.451 7.543-5.795 11.314-14.568 11.314-26.319 0-6.6-1.444-11.992-4.333-16.178-2.888-4.185-6.66-7.646-11.314-10.383-4.654-2.897-9.629-5.392-14.925-7.485-4.172-1.77-8.425-3.38-12.758-4.829-4.173-1.449-7.623-3.139-10.351-5.071-2.729-1.931-4.093-4.426-4.093-7.485 0-3.38 1.284-5.795 3.852-7.244 2.728-1.609 6.339-2.414 10.833-2.414 4.493 0 9.147 1.288 13.962 3.863 4.975 2.576 9.308 5.876 12.999 9.9l14.443-14.971c-4.172-5.6336-10.11-10.3018-17.813-14.0042-7.543-3.8634-15.808-5.7951-24.795-5.7951-6.58 0-12.758 1.2073-18.536 3.6219-5.777 2.4146-10.431 5.8756-13.962 10.3828-3.53 4.5076-5.296 9.9806-5.296 16.4196 0 6.922 1.525 12.556 4.574 16.902 3.21 4.185 7.222 7.566 12.036 10.141 4.815 2.576 9.79 4.91 14.925 7.002 6.419 2.415 12.036 4.991 16.851 7.727 4.975 2.737 7.462 6.52 7.462 11.349 0 3.702-1.364 6.519-4.092 8.451-2.568 1.771-6.179 2.656-10.833 2.656-4.814 0-10.271-1.932-16.369-5.795-5.938-4.024-11.555-9.176-16.851-15.453z"/><path d="m884.632 143.187c0-10.463 3.13-18.914 9.389-25.353 6.419-6.439 14.283-9.659 23.591-9.659 9.468 0 17.332 3.22 23.591 9.659s9.388 14.89 9.388 25.353c0 10.302-3.129 18.753-9.388 25.353-6.259 6.439-14.123 9.659-23.591 9.659-9.308 0-17.172-3.22-23.591-9.659-6.259-6.6-9.389-15.051-9.389-25.353zm-26.72 0c0 11.429 2.568 21.49 7.703 30.183 5.296 8.692 12.438 15.533 21.425 20.524 9.147 4.829 19.338 7.243 30.572 7.243 11.394 0 21.585-2.414 30.572-7.243 8.987-4.991 16.048-11.832 21.183-20.524 5.296-8.693 7.944-18.754 7.944-30.183s-2.648-21.49-7.944-30.182c-5.135-8.693-12.196-15.4538-21.183-20.283-8.987-4.9902-19.178-7.4853-30.572-7.4853-11.234 0-21.425 2.4951-30.572 7.4853-8.987 4.8292-16.129 11.59-21.425 20.283-5.135 8.692-7.703 18.753-7.703 30.182z"/><path d="m1150.99 128.217c0-14.005-2.89-24.629-8.67-31.8731-5.77-7.4048-14.68-11.1072-26.72-11.1072-7.38 0-14.12 1.7707-20.22 5.3122-6.1 3.3804-10.99 8.1291-14.68 14.2461-4.98-13.0388-15.57-19.5583-31.78-19.5583-7.22 0-13.48 1.6903-18.77 5.0707-5.14 3.3804-9.23 7.8877-12.28 13.5216v-16.1776h-25.518v111.0716h25.518v-67.609c0-7.405 1.84-13.361 5.54-17.868 3.85-4.668 9.3-7.002 16.36-7.002 6.75 0 11.48 2.173 14.21 6.519 2.73 4.185 4.09 10.302 4.09 18.351v67.609h26.24v-67.609c0-7.405 1.84-13.361 5.54-17.868 3.85-4.668 9.3-7.002 16.36-7.002 6.75 0 11.48 2.173 14.21 6.519 2.89 4.185 4.33 10.302 4.33 18.351v67.609h26.24z"/><path d="m1193.64 149.224h88.35c.16-1.288.24-2.576.24-3.864.16-1.288.24-2.414.24-3.38 0-17.546-7.38-31.39-17.33-41.531-9.79-10.1416-23.27-15.2123-40.44-15.2123-15.89 0-28.81 4.2658-38.76 12.7974-9.79 8.5319-15.81 19.6389-18.05 33.3219-.33 1.931-.57 3.863-.73 5.795-.16 1.931-.24 3.943-.24 6.036 0 11.107 2.33 21.088 6.98 29.941 4.66 8.693 11.24 15.534 19.74 20.524 8.51 4.99 18.46 7.485 29.85 7.485 13.8 0 25.12-2.736 33.94-8.209 8.99-5.473 18.62-12.717 24.08-21.732l-25.04-9.175c-3.21 5.473-7.46 9.819-12.76 13.039-5.13 3.058-11.47 4.587-19.01 4.587-8.51 0-15.57-2.495-21.19-7.485-5.61-5.151-8.9-12.797-9.87-22.938zm.48-18.11c1.13-8.21 4.5-14.568 10.11-19.075 5.62-4.668 12.36-7.003 20.23-7.003 8.34 0 14.76 2.335 19.25 7.003 4.5 4.668 7.23 11.026 8.19 19.075z"/></g></svg>

<svg xmlns="http://www.w3.org/2000/svg" width="1289" height="245" fill="none" viewBox="0 0 1289 245"><path fill="url(#paint0_linear)" d="M221.494 101.381C233.274 100.815 243.701 109.953 244.718 121.743C249.124 178.78 196.925 242.674 123.366 244.717C61.3771 246.247 0.0683594 196.619 0.0683594 121.58C0.0683594 109.754 9.84059 100.167 21.6338 100.167C33.427 100.167 42.9873 109.754 42.9873 121.58C42.9873 170.939 82.675 202.883 122.316 201.905C171.115 200.549 202.839 158.295 201.189 123.795C200.623 111.983 209.715 101.948 221.494 101.381Z"/><path fill="#00A672" d="M168.15 123.24C168.15 111.133 178.026 101.318 190.208 101.318L222.354 101.318C234.537 101.318 244.718 111.133 244.718 123.24C244.718 135.348 234.537 145.163 222.354 145.163H190.208C178.026 145.163 168.15 135.348 168.15 123.24Z"/><path fill="#00A672" d="M100.7 123.272C100.7 111.147 110.513 101.318 122.604 101.318C134.696 101.318 144.509 111.147 144.509 123.272C144.509 135.397 134.696 145.227 122.604 145.227C110.513 145.227 100.7 135.397 100.7 123.272Z"/><path fill="#00A672" fill-rule="evenodd" d="M143.902 20.6961C144.392 32.5119 135.236 42.4882 123.453 42.9789C72.5875 45.0972 41.5346 85.0757 43.0461 123.036C43.5166 134.852 34.5367 144.814 22.7528 145.286C10.969 145.758 0.606386 136.221 0.135873 124.405C-2.32727 62.5448 49.1805 1.39121 121.681 0.190226C133.464 -0.300477 143.413 8.88031 143.902 20.6961Z" clip-rule="evenodd"/><g clip-path="url(#clip0)"><path fill="#fff" d="M408.102 134.495H449.305C447.219 142.221 443.929 149.224 439.436 155.502C435.103 161.618 429.405 166.528 422.344 170.231C415.283 173.933 406.697 175.784 396.587 175.784C385.513 175.784 375.483 173.209 366.496 168.057C357.67 162.906 350.688 155.743 345.553 146.568C340.418 137.231 337.85 126.446 337.85 114.212C337.85 101.817 340.418 91.1123 345.553 82.0978C350.849 72.9223 357.91 65.8395 366.737 60.8493C375.724 55.8591 385.674 53.3641 396.587 53.3641C408.302 53.3641 418.252 55.7787 426.437 60.6079C434.782 65.437 441.281 71.876 445.935 79.9246L469.045 64.2297C461.663 52.4787 451.793 43.3032 439.436 36.7034C427.239 30.1035 412.956 26.8035 396.587 26.8035C383.909 26.8035 372.113 28.9766 361.2 33.3229C350.448 37.5082 341.06 43.4642 333.035 51.1909C325.172 58.9176 318.993 68.1736 314.5 78.9588C310.167 89.583 308 101.334 308 114.212C308 127.09 310.167 138.921 314.5 149.706C318.833 160.492 324.931 169.828 332.795 177.716C340.819 185.604 350.207 191.72 360.959 196.067C371.712 200.252 383.427 202.345 396.105 202.345C409.586 202.345 421.542 199.93 431.973 195.101C442.405 190.111 451.151 183.35 458.212 174.818C465.273 166.287 470.569 156.548 474.1 145.602C477.631 134.495 479.235 122.743 478.914 110.349H411.539L408.102 134.495Z"/><path fill="#fff" d="M557.159 115.661L569.918 93.4464C567.35 90.5489 564.301 88.4562 560.77 87.1684C557.24 85.8806 553.468 85.2367 549.456 85.2367C544.802 85.2367 540.228 86.6855 535.735 89.583C531.241 92.3196 527.39 96.1829 524.18 101.173V87.6514H498.423V198.723H524.18V136.185C524.18 128.136 525.624 121.697 528.513 116.868C531.402 112.039 536.056 109.624 542.475 109.624C545.685 109.624 548.333 110.188 550.419 111.314C552.505 112.28 554.752 113.729 557.159 115.661Z"/><path fill="#fff" d="M582.945 87.6514V198.723H608.462V87.6514H582.945ZM579.334 46.9105C579.334 51.4178 580.939 55.2007 584.149 58.2592C587.358 61.3176 591.21 62.8469 595.704 62.8469C600.358 62.8469 604.289 61.3176 607.499 58.2592C610.709 55.2007 612.314 51.4178 612.314 46.9105C612.314 42.4033 610.709 38.6204 607.499 35.5619C604.289 32.5034 600.358 30.9742 595.704 30.9742C591.21 30.9742 587.358 32.5034 584.149 35.5619C580.939 38.6204 579.334 42.4033 579.334 46.9105Z"/><path fill="#fff" d="M652.116 143.187C652.116 132.08 655.406 123.468 661.986 117.351C668.566 111.073 676.349 107.934 685.336 107.934C690.311 107.934 695.206 109.302 700.021 112.039C704.835 114.775 708.847 118.8 712.057 124.112C715.266 129.263 716.871 135.621 716.871 143.187C716.871 150.753 715.266 157.192 712.057 162.504C708.847 167.655 704.835 171.599 700.021 174.335C695.206 177.072 690.311 178.44 685.336 178.44C676.349 178.44 668.566 175.382 661.986 169.265C655.406 162.987 652.116 154.294 652.116 143.187ZM625.155 143.187C625.155 155.421 627.643 165.884 632.618 174.577C637.593 183.108 644.172 189.708 652.357 194.377C660.542 198.884 669.449 201.137 679.078 201.137C687.102 201.137 694.323 199.367 700.743 195.825C707.323 192.123 712.699 186.972 716.871 180.372V198.723H743.11V18.3108H716.871V106.002C712.699 99.4024 707.323 94.3317 700.743 90.7903C694.323 87.0879 687.102 85.2367 679.078 85.2367C669.449 85.2367 660.542 87.5709 652.357 92.2391C644.172 96.7463 637.593 103.346 632.618 112.039C627.643 120.57 625.155 130.953 625.155 143.187Z"/><path fill="#fff" d="M772.658 158.641L757.493 173.37C762.628 181.579 769.449 188.421 777.954 193.894C786.62 199.367 796.33 202.103 807.082 202.103C818.797 202.103 828.346 199.286 835.728 193.652C843.271 187.857 847.042 179.084 847.042 167.333C847.042 160.733 845.598 155.341 842.709 151.155C839.821 146.97 836.049 143.509 831.395 140.772C826.741 137.875 821.766 135.38 816.47 133.287C812.298 131.517 808.045 129.907 803.712 128.458C799.539 127.009 796.089 125.319 793.361 123.387C790.632 121.456 789.268 118.961 789.268 115.902C789.268 112.522 790.552 110.107 793.12 108.658C795.848 107.049 799.459 106.244 803.953 106.244C808.446 106.244 813.1 107.532 817.915 110.107C822.89 112.683 827.223 115.983 830.914 120.007L845.357 105.036C841.185 99.4024 835.247 94.7342 827.544 91.0318C820.001 87.1684 811.736 85.2367 802.749 85.2367C796.169 85.2367 789.991 86.444 784.213 88.8586C778.436 91.2732 773.782 94.7342 770.251 99.2414C766.721 103.749 764.955 109.222 764.955 115.661C764.955 122.583 766.48 128.217 769.529 132.563C772.739 136.748 776.751 140.129 781.565 142.704C786.38 145.28 791.355 147.614 796.49 149.706C802.909 152.121 808.526 154.697 813.341 157.433C818.316 160.17 820.803 163.953 820.803 168.782C820.803 172.484 819.439 175.301 816.711 177.233C814.143 179.004 810.532 179.889 805.878 179.889C801.064 179.889 795.607 177.957 789.509 174.094C783.571 170.07 777.954 164.918 772.658 158.641Z"/><path fill="#fff" d="M884.632 143.187C884.632 132.724 887.762 124.273 894.021 117.834C900.44 111.395 908.304 108.175 917.612 108.175C927.08 108.175 934.944 111.395 941.203 117.834C947.462 124.273 950.591 132.724 950.591 143.187C950.591 153.489 947.462 161.94 941.203 168.54C934.944 174.979 927.08 178.199 917.612 178.199C908.304 178.199 900.44 174.979 894.021 168.54C887.762 161.94 884.632 153.489 884.632 143.187ZM857.912 143.187C857.912 154.616 860.48 164.677 865.615 173.37C870.911 182.062 878.053 188.903 887.04 193.894C896.187 198.723 906.378 201.137 917.612 201.137C929.006 201.137 939.197 198.723 948.184 193.894C957.171 188.903 964.232 182.062 969.367 173.37C974.663 164.677 977.311 154.616 977.311 143.187C977.311 131.758 974.663 121.697 969.367 113.005C964.232 104.312 957.171 97.5512 948.184 92.722C939.197 87.7318 929.006 85.2367 917.612 85.2367C906.378 85.2367 896.187 87.7318 887.04 92.722C878.053 97.5512 870.911 104.312 865.615 113.005C860.48 121.697 857.912 131.758 857.912 143.187Z"/><path fill="#fff" d="M1150.99 128.217C1150.99 114.212 1148.1 103.588 1142.32 96.3439C1136.55 88.9391 1127.64 85.2367 1115.6 85.2367C1108.22 85.2367 1101.48 87.0074 1095.38 90.5489C1089.28 93.9293 1084.39 98.678 1080.7 104.795C1075.72 91.7562 1065.13 85.2367 1048.92 85.2367C1041.7 85.2367 1035.44 86.927 1030.15 90.3074C1025.01 93.6878 1020.92 98.1951 1017.87 103.829V87.6514H992.352V198.723H1017.87V131.114C1017.87 123.709 1019.71 117.753 1023.41 113.246C1027.26 108.578 1032.71 106.244 1039.77 106.244C1046.52 106.244 1051.25 108.417 1053.98 112.763C1056.71 116.948 1058.07 123.065 1058.07 131.114V198.723H1084.31V131.114C1084.31 123.709 1086.15 117.753 1089.85 113.246C1093.7 108.578 1099.15 106.244 1106.21 106.244C1112.96 106.244 1117.69 108.417 1120.42 112.763C1123.31 116.948 1124.75 123.065 1124.75 131.114V198.723H1150.99V128.217Z"/><path fill="#fff" d="M1193.64 149.224H1281.99C1282.15 147.936 1282.23 146.648 1282.23 145.36C1282.39 144.072 1282.47 142.946 1282.47 141.98C1282.47 124.434 1275.09 110.59 1265.14 100.449C1255.35 90.3074 1241.87 85.2367 1224.7 85.2367C1208.81 85.2367 1195.89 89.5025 1185.94 98.0341C1176.15 106.566 1170.13 117.673 1167.89 131.356C1167.56 133.287 1167.32 135.219 1167.16 137.151C1167 139.082 1166.92 141.094 1166.92 143.187C1166.92 154.294 1169.25 164.275 1173.9 173.128C1178.56 181.821 1185.14 188.662 1193.64 193.652C1202.15 198.642 1212.1 201.137 1223.49 201.137C1237.29 201.137 1248.61 198.401 1257.43 192.928C1266.42 187.455 1276.05 180.211 1281.51 171.196L1256.47 162.021C1253.26 167.494 1249.01 171.84 1243.71 175.06C1238.58 178.118 1232.24 179.647 1224.7 179.647C1216.19 179.647 1209.13 177.152 1203.51 172.162C1197.9 167.011 1194.61 159.365 1193.64 149.224ZM1194.12 131.114C1195.25 122.904 1198.62 116.546 1204.23 112.039C1209.85 107.371 1216.59 105.036 1224.46 105.036C1232.8 105.036 1239.22 107.371 1243.71 112.039C1248.21 116.707 1250.94 123.065 1251.9 131.114H1194.12Z"/></g><defs><linearGradient id="paint0_linear" x1="122.523" x2="122.523" y1="100.167" y2="244.752" gradientUnits="userSpaceOnUse"><stop stop-color="#00583E"/><stop offset="1" stop-color="#00835C"/></linearGradient><clipPath id="clip0"><rect width="981" height="183" fill="#fff" transform="translate(308 19)"/></clipPath></defs></svg>
